img/footer/telegram.svg

<svg width="24" height="20" viewBox="0 0 24 20" fill="none" xmlns="http://www.w3.org/2000/svg">
<path d="M21.6243 0.824903L1.74887 8.48924C0.392454 9.03405 0.400301 9.79073 1.50001 10.1281L6.60284 11.72L18.4093 4.27088C18.9676 3.93122 19.4776 4.11394 19.0584 4.48612L9.4928 13.119H9.49056L9.4928 13.1201L9.1408 18.3799C9.65647 18.3799 9.88403 18.1434 10.1733 17.8642L12.6518 15.4541L17.8073 19.2621C18.7579 19.7856 19.4406 19.5166 19.6772 18.3821L23.0615 2.43243C23.4079 1.0435 22.5312 0.414614 21.6243 0.824903Z" fill="white"/>
</svg>

<svg width="24" height="20" fill="none" xmlns="http://www.w3.org/2000/svg"><path d="M21.624.825L1.75 8.489C.392 9.034.4 9.791 1.5 10.13l5.103 1.591 11.806-7.45c.559-.339 1.069-.156.65.216L9.492 13.12H9.49l.002.001-.352 5.26c.515 0 .743-.237 1.032-.516l2.479-2.41 5.155 3.808c.95.524 1.634.255 1.87-.88l3.384-15.95c.347-1.388-.53-2.017-1.437-1.607z" fill="#fff"/></svg>
